apps/www/public/images/launchweek/seven/day1/self-hosted-logs-001-5-mobile.svg

<svg xmlns="http://www.w3.org/2000/svg" width="533" height="400" fill="none" viewBox="0 0 533 400"><g clip-path="url(#a)" filter="url(#b)"><rect width="701" height="37" x="47" y="282" fill="url(#c)" fill-opacity=".5" rx="8"/><path stroke="#ab6161" stroke-linecap="round" stroke-linejoin="round" stroke-width="1.627" d="M76.262 293.682H64.87c-.9 0-1.628.728-1.628 1.627v11.392c0 .899.729 1.628 1.628 1.628h11.392c.899 0 1.627-.729 1.627-1.628v-11.392c0-.899-.728-1.627-1.627-1.627M68.125 298.564l4.882 4.883M73.007 298.564l-4.882 4.883"/><g filter="url(#d)"><rect width="46.275" height="26.51" x="89.285" y="287.75" fill="#431818" fill-opacity=".4" rx="6.51"/><path fill="#ab6161" d="M102.499 307.199c1.973 0 3.818-1.294 3.818-3.608s-1.57-3.348-3.543-3.348c-.793 0-1.311.177-1.909.452l.275-3.219h4.659v-1.149h-5.84l-.34 5.129.712.453c.728-.421 1.245-.663 2.103-.663 1.537 0 2.54.889 2.54 2.378 0 1.504-1.165 2.475-2.621 2.475-1.391 0-2.233-.582-2.912-1.23l-.663.89c.792.728 1.876 1.44 3.721 1.44m9.927 0c2.297 0 3.704-2.022 3.704-5.565 0-3.576-1.407-5.501-3.704-5.501s-3.705 1.925-3.705 5.501c0 3.543 1.407 5.565 3.705 5.565m0-1.068c-1.44 0-2.46-1.423-2.46-4.497 0-3.09 1.02-4.433 2.46-4.433s2.459 1.343 2.459 4.433c0 3.074-1.02 4.497-2.459 4.497m0-3.51c.533 0 1.003-.405 1.003-1.1s-.47-1.101-1.003-1.101c-.534 0-1.004.405-1.004 1.101 0 .695.47 1.1 1.004 1.1m9.473 4.578c1.974 0 3.818-1.294 3.818-3.608s-1.569-3.348-3.543-3.348c-.792 0-1.31.177-1.908.452l.275-3.219h4.659v-1.149h-5.84l-.34 5.129.712.453c.728-.421 1.245-.663 2.103-.663 1.537 0 2.54.889 2.54 2.378 0 1.504-1.165 2.475-2.621 2.475-1.391 0-2.233-.582-2.912-1.23l-.663.89c.792.728 1.876 1.44 3.72 1.44"/><rect width="45.461" height="25.696" x="89.692" y="288.157" stroke="#ab6161" stroke-width=".814" rx="6.103"/></g><path fill="#fff" fill-opacity=".7" d="M146.146 307.005h7.176v-1.135h-2.787v-9.879h-1.018c-.668.35-1.485.634-2.62.801v.884h2.27v8.194h-3.021zm9.589 0h7.493v-1.185h-3.504c-.634 0-1.335.05-1.986.1 2.904-2.77 4.906-4.823 4.906-6.892 0-1.953-1.335-3.238-3.471-3.238-1.502 0-2.553.668-3.505 1.669l.785.785c.684-.751 1.552-1.336 2.553-1.336 1.569 0 2.32.918 2.32 2.17 0 1.852-1.986 3.788-5.591 7.109zm13.795-5.774c.751 0 1.352-.568 1.352-1.419 0-.834-.601-1.402-1.352-1.402s-1.352.568-1.352 1.402c0 .851.601 1.419 1.352 1.419m0 5.974c.751 0 1.352-.567 1.352-1.402 0-.851-.601-1.418-1.352-1.418s-1.352.567-1.352 1.418c0 .835.601 1.402 1.352 1.402m11.141-.2h1.302v-3.054h1.652v-1.101h-1.652v-3.071h-1.302v3.071h-3.972l3.972-6.859h-1.435l-4.055 7.042v.918h5.49zm8.638.2c2.036 0 3.939-1.335 3.939-3.721s-1.619-3.455-3.655-3.455c-.818 0-1.352.184-1.969.467l.283-3.321h4.806v-1.184h-6.024l-.35 5.29.734.467c.751-.434 1.285-.684 2.169-.684 1.586 0 2.62.918 2.62 2.453 0 1.552-1.201 2.553-2.703 2.553-1.435 0-2.303-.6-3.004-1.268l-.684.918c.818.751 1.936 1.485 3.838 1.485m10.24-5.974c.751 0 1.352-.568 1.352-1.419 0-.834-.601-1.402-1.352-1.402s-1.352.568-1.352 1.402c0 .851.601 1.419 1.352 1.419m0 5.974c.751 0 1.352-.567 1.352-1.402 0-.851-.601-1.418-1.352-1.418s-1.352.567-1.352 1.418c0 .835.601 1.402 1.352 1.402m10.007 0c2.369 0 3.821-2.086 3.821-5.741 0-3.688-1.452-5.674-3.821-5.674s-3.822 1.986-3.822 5.674c0 3.655 1.452 5.741 3.822 5.741m-2.253-3.221c-.184-.667-.284-1.518-.284-2.52 0-3.187 1.051-4.572 2.537-4.572.684 0 1.285.3 1.718.951zm2.253 2.12c-.735 0-1.352-.351-1.803-1.085l4.005-6.191c.217.684.334 1.568.334 2.636 0 3.171-1.051 4.64-2.536 4.64m6.218.901h7.493v-1.185h-3.505c-.634 0-1.335.05-1.986.1 2.904-2.77 4.907-4.823 4.907-6.892 0-1.953-1.335-3.238-3.471-3.238-1.502 0-2.554.668-3.505 1.669l.784.785c.685-.751 1.552-1.336 2.554-1.336 1.568 0 2.319.918 2.319 2.17 0 1.852-1.986 3.788-5.59 7.109z"/><path stroke="#bfbfbf" stroke-width="1.156" d="M234.461 292.085v17.84"/><path fill="#fff" fill-opacity=".7" d="M248.085 310.793c2.403 0 3.788-1.318 3.788-3.788v-8.511h-1.101l-.117.951h-.05c-.718-.717-1.535-1.151-2.487-1.151-1.969 0-3.704 1.668-3.704 4.339 0 2.686 1.418 4.288 3.504 4.288 1.001 0 2.003-.567 2.637-1.268l-.017 1.352c-.016 1.986-.901 2.687-2.453 2.687-.818 0-1.752-.234-2.587-1.302l-.667.834c1.051 1.252 2.203 1.569 3.254 1.569m.134-5.006c-1.486 0-2.404-1.235-2.404-3.171 0-1.853 1.169-3.171 2.537-3.171.718 0 1.419.284 2.153 1.018v4.022c-.734.851-1.502 1.302-2.286 1.302m10.707 1.435c1.302 0 2.32-.467 3.121-1.001l-.484-.918c-.751.5-1.519.801-2.47.801-1.769 0-3.037-1.185-3.104-3.021h6.341a6 6 0 0 0 .05-.801c0-2.403-1.368-3.988-3.688-3.988-2.102 0-4.122 1.702-4.122 4.472 0 2.787 1.953 4.456 4.356 4.456m-2.954-5.14c.217-1.702 1.419-2.704 2.737-2.704 1.502 0 2.403.968 2.403 2.704zm14.012 5.14c.884 0 1.819-.234 2.553-.518l-.3-1.001a5 5 0 0 1-1.953.384c-1.569 0-2.053-.818-2.053-2.353v-4.122h3.989v-1.118h-3.989v-3.338l-1.318.835v2.503h-2.336v1.118h2.286v4.105c0 2.086.768 3.505 3.121 3.505"/><path stroke="#bfbfbf" stroke-width="1.156" d="M283.364 292.085v17.84"/><path fill="#fff" fill-opacity=".7" d="M293.132 307.706h1.235l7.143-12.55h-1.235zm14.529-11.115c.651 0 1.168-.467 1.168-1.151 0-.701-.517-1.185-1.168-1.185s-1.168.484-1.168 1.185c0 .684.517 1.151 1.168 1.151m-3.671 10.414h7.676v-1.135h-3.154v-7.376h-4.522v1.118h3.154v6.258h-3.154zm9.339 0h1.318v-6.191c.417-.885.784-1.336 1.352-1.336.601 0 .918.518.918 1.552v5.975h1.101v-6.191c.417-.885.801-1.336 1.385-1.336.601 0 .885.518.885 1.552v5.975h1.318v-6.091c0-1.703-.651-2.62-1.769-2.62-.901 0-1.435.567-1.919 1.468-.2-.984-.718-1.468-1.535-1.468-.918 0-1.419.534-1.819 1.335h-.051l-.116-1.135h-1.068zm13.677 3.788c2.404 0 3.789-1.318 3.789-3.788v-8.511h-1.102l-.117.951h-.05c-.717-.717-1.535-1.151-2.486-1.151-1.969 0-3.705 1.668-3.705 4.339 0 2.686 1.419 4.288 3.505 4.288 1.001 0 2.002-.567 2.636-1.268l-.016 1.352c-.017 1.986-.902 2.687-2.454 2.687-.817 0-1.752-.234-2.586-1.302l-.668.834c1.052 1.252 2.203 1.569 3.254 1.569m.134-5.006c-1.485 0-2.403-1.235-2.403-3.171 0-1.853 1.168-3.171 2.536-3.171.718 0 1.419.284 2.153 1.018v4.022c-.734.851-1.502 1.302-2.286 1.302m6.018 1.919h1.235l7.142-12.55H340.3zm14.362-.484c2.32 0 3.605-1.152 3.605-2.537 0-1.285-1.052-1.952-3.238-2.536-1.468-.384-2.47-.818-2.47-1.519 0-.684.484-1.268 2.003-1.268 1.001 0 1.869.367 2.587.901l.667-.901c-.801-.568-2.036-1.068-3.254-1.068-2.236 0-3.405 1.051-3.405 2.403 0 1.185 1.419 1.969 3.088 2.403 1.986.517 2.637 1.001 2.637 1.669 0 .767-.718 1.368-2.17 1.368s-2.453-.45-3.354-1.151l-.668.901c.985.717 2.387 1.335 3.972 1.335m6.385-.217h1.369v-5.941c.951-1.068 1.602-1.586 2.57-1.586 1.335 0 1.869.785 1.869 2.42v5.107h1.368v-5.29c0-2.237-.884-3.421-2.804-3.421-1.268 0-2.202.717-3.07 1.685l.067-2.036v-3.07h-1.369zm12.56.217c1.151 0 2.303-.651 3.204-1.385h.05l.117 1.168h1.118v-5.24c0-2.086-1.068-3.471-3.288-3.471-1.418 0-2.62.667-3.271 1.218l.534.951c.585-.501 1.452-1.035 2.504-1.035 1.568 0 2.119 1.018 2.153 2.187-4.189.367-5.875 1.285-5.875 3.204 0 1.518 1.235 2.403 2.754 2.403m.367-1.102c-.935 0-1.786-.417-1.786-1.401 0-1.152 1.068-1.886 4.54-2.187v2.287c-.918.834-1.836 1.301-2.754 1.301m7.97.885h1.369v-5.023c.968-1.786 2.119-2.453 3.338-2.453.634 0 .934.083 1.501.3l.318-1.185c-.501-.267-1.002-.35-1.603-.35-1.501 0-2.77.867-3.621 2.236h-.05l-.117-2.036h-1.135zm13.078.217c1.301 0 2.319-.467 3.12-1.001l-.484-.918c-.751.5-1.518.801-2.47.801-1.769 0-3.037-1.185-3.104-3.021h6.342c.033-.217.05-.517.05-.801 0-2.403-1.368-3.988-3.688-3.988-2.103 0-4.122 1.702-4.122 4.472 0 2.787 1.952 4.456 4.356 4.456m-2.954-5.14c.217-1.702 1.418-2.704 2.737-2.704 1.502 0 2.403.968 2.403 2.704zm12.459 5.123c.751 0 1.352-.567 1.352-1.402 0-.851-.601-1.418-1.352-1.418s-1.351.567-1.351 1.418c0 .835.6 1.402 1.351 1.402m10.174.017c2.319 0 3.604-1.152 3.604-2.537 0-1.285-1.051-1.952-3.237-2.536-1.469-.384-2.47-.818-2.47-1.519 0-.684.484-1.268 2.002-1.268 1.002 0 1.87.367 2.587.901l.668-.901c-.801-.568-2.036-1.068-3.255-1.068-2.236 0-3.404 1.051-3.404 2.403 0 1.185 1.419 1.969 3.087 2.403 1.986.517 2.637 1.001 2.637 1.669 0 .767-.717 1.368-2.169 1.368s-2.453-.45-3.355-1.151l-.667.901c.984.717 2.386 1.335 3.972 1.335m9.105-.217h1.535l3.355-8.511h-1.319l-1.869 4.89c-.334.851-.601 1.702-.884 2.486h-.067c-.284-.784-.584-1.635-.918-2.486l-1.869-4.89h-1.385zm10.407 3.788c2.403 0 3.788-1.318 3.788-3.788v-8.511h-1.101l-.117.951h-.05c-.718-.717-1.536-1.151-2.487-1.151-1.969 0-3.705 1.668-3.705 4.339 0 2.686 1.419 4.288 3.505 4.288 1.001 0 2.003-.567 2.637-1.268l-.017 1.352c-.017 1.986-.901 2.687-2.453 2.687-.818 0-1.752-.234-2.587-1.302l-.667.834c1.051 1.252 2.202 1.569 3.254 1.569m.133-5.006c-1.485 0-2.403-1.235-2.403-3.171 0-1.853 1.168-3.171 2.537-3.171.717 0 1.418.284 2.153 1.018v4.022c-.735.851-1.502 1.302-2.287 1.302"/><rect width="699.808" height="35.808" x="47.596" y="282.596" stroke="url(#e)" stroke-width="1.192" rx="7.404"/></g><defs><linearGradient id="c" x1="394.488" x2="423.075" y1="207.264" y2="357.229" gradientUnits="userSpaceOnUse"><stop stop-color="#bb93c5" stop-opacity="0"/><stop offset=".198" stop-color="#bb93c5" stop-opacity=".19"/><stop offset="1" stop-color="#302642"/></linearGradient><linearGradient id="e" x1="627.95" x2="639.702" y1="319" y2="274.344" gradientUnits="userSpaceOnUse"><stop stop-color="#d478ff" stop-opacity=".05"/><stop offset="1" stop-color="#d782ff" stop-opacity=".74"/></linearGradient><filter id="b" width="720.072" height="56.072" x="37.464" y="272.464" color-interpolation-filters="sRGB" filterUnits="userSpaceOnUse"><feFlood flood-opacity="0" result="BackgroundImageFix"/><feGaussianBlur in="BackgroundImageFix" stdDeviation="4.768"/><feComposite in2="SourceAlpha" operator="in" result="effect1_backgroundBlur_19_7555"/><feBlend in="SourceGraphic" in2="effect1_backgroundBlur_19_7555" result="shape"/></filter><filter id="d" width="132.782" height="113.017" x="46.031" y="244.496" color-interpolation-filters="sRGB" filterUnits="userSpaceOnUse"><feFlood flood-opacity="0" result="BackgroundImageFix"/><feGaussianBlur in="BackgroundImageFix" stdDeviation="21.627"/><feComposite in2="SourceAlpha" operator="in" result="effect1_backgroundBlur_19_7555"/><feBlend in="SourceGraphic" in2="effect1_backgroundBlur_19_7555" result="shape"/></filter><clipPath id="a"><path fill="#fff" d="M0 0h533v400H0z"/></clipPath></defs></svg>

<svg width="533" height="400" viewBox="0 0 533 400" fill="none" xmlns="http://www.w3.org/2000/svg">
<g clip-path="url(#clip0_19_7555)">
<g filter="url(#filter0_b_19_7555)">
<rect x="47" y="282" width="701" height="37" rx="8" fill="url(#paint0_linear_19_7555)" fill-opacity="0.5"/>
<path d="M76.2618 293.682H64.8696C63.9708 293.682 63.2422 294.41 63.2422 295.309V306.701C63.2422 307.6 63.9708 308.329 64.8696 308.329H76.2618C77.1606 308.329 77.8892 307.6 77.8892 306.701V295.309C77.8892 294.41 77.1606 293.682 76.2618 293.682Z" stroke="#AB6161" stroke-width="1.62745" stroke-linecap="round" stroke-linejoin="round"/>
<path d="M68.125 298.564L73.0073 303.447" stroke="#AB6161" stroke-width="1.62745" stroke-linecap="round" stroke-linejoin="round"/>
<path d="M73.0073 298.564L68.125 303.447" stroke="#AB6161" stroke-width="1.62745" stroke-linecap="round" stroke-linejoin="round"/>
<g filter="url(#filter1_b_19_7555)">
<rect x="89.2852" y="287.75" width="46.2745" height="26.5098" rx="6.5098" fill="#431818" fill-opacity="0.4"/>
<path d="M102.499 307.199C104.472 307.199 106.317 305.905 106.317 303.591C106.317 301.278 104.747 300.243 102.774 300.243C101.981 300.243 101.463 300.42 100.865 300.695L101.14 297.476H105.799V296.327H99.9587L99.6189 301.456L100.331 301.909C101.059 301.488 101.576 301.246 102.434 301.246C103.971 301.246 104.974 302.135 104.974 303.624C104.974 305.128 103.809 306.099 102.353 306.099C100.962 306.099 100.12 305.517 99.441 304.869L98.7777 305.759C99.5704 306.487 100.654 307.199 102.499 307.199ZM112.426 307.199C114.723 307.199 116.13 305.177 116.13 301.634C116.13 298.058 114.723 296.133 112.426 296.133C110.128 296.133 108.721 298.058 108.721 301.634C108.721 305.177 110.128 307.199 112.426 307.199ZM112.426 306.131C110.986 306.131 109.966 304.708 109.966 301.634C109.966 298.544 110.986 297.201 112.426 297.201C113.865 297.201 114.885 298.544 114.885 301.634C114.885 304.708 113.865 306.131 112.426 306.131ZM112.426 302.621C112.959 302.621 113.429 302.216 113.429 301.521C113.429 300.825 112.959 300.42 112.426 300.42C111.892 300.42 111.422 300.825 111.422 301.521C111.422 302.216 111.892 302.621 112.426 302.621ZM121.899 307.199C123.873 307.199 125.717 305.905 125.717 303.591C125.717 301.278 124.148 300.243 122.174 300.243C121.382 300.243 120.864 300.42 120.266 300.695L120.541 297.476H125.2V296.327H119.36L119.02 301.456L119.732 301.909C120.46 301.488 120.977 301.246 121.835 301.246C123.372 301.246 124.375 302.135 124.375 303.624C124.375 305.128 123.21 306.099 121.754 306.099C120.363 306.099 119.521 305.517 118.842 304.869L118.179 305.759C118.971 306.487 120.055 307.199 121.899 307.199Z" fill="#AB6161"/>
<rect x="89.692" y="288.157" width="45.4608" height="25.6961" rx="6.10293" stroke="#AB6161" stroke-width="0.813724"/>
</g>
<path d="M146.146 307.005H153.322V305.87H150.535V295.991H149.517C148.849 296.341 148.032 296.625 146.897 296.792V297.676H149.167V305.87H146.146V307.005ZM155.735 307.005H163.228V305.82H159.724C159.09 305.82 158.389 305.87 157.738 305.92C160.642 303.15 162.644 301.097 162.644 299.028C162.644 297.075 161.309 295.79 159.173 295.79C157.671 295.79 156.62 296.458 155.668 297.459L156.453 298.244C157.137 297.493 158.005 296.908 159.006 296.908C160.575 296.908 161.326 297.826 161.326 299.078C161.326 300.93 159.34 302.866 155.735 306.187V307.005ZM169.53 301.231C170.281 301.231 170.882 300.663 170.882 299.812C170.882 298.978 170.281 298.41 169.53 298.41C168.779 298.41 168.178 298.978 168.178 299.812C168.178 300.663 168.779 301.231 169.53 301.231ZM169.53 307.205C170.281 307.205 170.882 306.638 170.882 305.803C170.882 304.952 170.281 304.385 169.53 304.385C168.779 304.385 168.178 304.952 168.178 305.803C168.178 306.638 168.779 307.205 169.53 307.205ZM180.671 307.005H181.973V303.951H183.625V302.85H181.973V299.779H180.671V302.85H176.699L180.671 295.991H179.236L175.181 303.033V303.951H180.671V307.005ZM189.309 307.205C191.345 307.205 193.248 305.87 193.248 303.484C193.248 301.097 191.629 300.029 189.593 300.029C188.775 300.029 188.241 300.213 187.624 300.496L187.907 297.175H192.713V295.991H186.689L186.339 301.281L187.073 301.748C187.824 301.314 188.358 301.064 189.242 301.064C190.828 301.064 191.862 301.982 191.862 303.517C191.862 305.069 190.661 306.07 189.159 306.07C187.724 306.07 186.856 305.47 186.155 304.802L185.471 305.72C186.289 306.471 187.407 307.205 189.309 307.205ZM199.549 301.231C200.3 301.231 200.901 300.663 200.901 299.812C200.901 298.978 200.3 298.41 199.549 298.41C198.798 298.41 198.197 298.978 198.197 299.812C198.197 300.663 198.798 301.231 199.549 301.231ZM199.549 307.205C200.3 307.205 200.901 306.638 200.901 305.803C200.901 304.952 200.3 304.385 199.549 304.385C198.798 304.385 198.197 304.952 198.197 305.803C198.197 306.638 198.798 307.205 199.549 307.205ZM209.556 307.205C211.925 307.205 213.377 305.119 213.377 301.464C213.377 297.776 211.925 295.79 209.556 295.79C207.186 295.79 205.734 297.776 205.734 301.464C205.734 305.119 207.186 307.205 209.556 307.205ZM207.303 303.984C207.119 303.317 207.019 302.466 207.019 301.464C207.019 298.277 208.07 296.892 209.556 296.892C210.24 296.892 210.841 297.192 211.274 297.843L207.303 303.984ZM209.556 306.104C208.821 306.104 208.204 305.753 207.753 305.019L211.758 298.828C211.975 299.512 212.092 300.396 212.092 301.464C212.092 304.635 211.041 306.104 209.556 306.104ZM215.774 307.005H223.267V305.82H219.762C219.128 305.82 218.427 305.87 217.776 305.92C220.68 303.15 222.683 301.097 222.683 299.028C222.683 297.075 221.348 295.79 219.212 295.79C217.71 295.79 216.658 296.458 215.707 297.459L216.491 298.244C217.176 297.493 218.043 296.908 219.045 296.908C220.613 296.908 221.364 297.826 221.364 299.078C221.364 300.93 219.378 302.866 215.774 306.187V307.005Z" fill="white" fill-opacity="0.7"/>
<path d="M234.461 292.085L234.461 309.925" stroke="#BFBFBF" stroke-width="1.15557"/>
<path d="M248.085 310.793C250.488 310.793 251.873 309.475 251.873 307.005V298.494H250.772L250.655 299.445H250.605C249.887 298.728 249.07 298.294 248.118 298.294C246.149 298.294 244.414 299.962 244.414 302.633C244.414 305.319 245.832 306.921 247.918 306.921C248.919 306.921 249.921 306.354 250.555 305.653L250.538 307.005C250.522 308.991 249.637 309.692 248.085 309.692C247.267 309.692 246.333 309.458 245.498 308.39L244.831 309.224C245.882 310.476 247.034 310.793 248.085 310.793ZM248.219 305.787C246.733 305.787 245.815 304.552 245.815 302.616C245.815 300.763 246.984 299.445 248.352 299.445C249.07 299.445 249.771 299.729 250.505 300.463V304.485C249.771 305.336 249.003 305.787 248.219 305.787ZM258.926 307.222C260.228 307.222 261.246 306.755 262.047 306.221L261.563 305.303C260.812 305.803 260.044 306.104 259.093 306.104C257.324 306.104 256.056 304.919 255.989 303.083H262.33C262.364 302.866 262.38 302.566 262.38 302.282C262.38 299.879 261.012 298.294 258.692 298.294C256.59 298.294 254.57 299.996 254.57 302.766C254.57 305.553 256.523 307.222 258.926 307.222ZM255.972 302.082C256.189 300.38 257.391 299.378 258.709 299.378C260.211 299.378 261.112 300.346 261.112 302.082H255.972ZM269.984 307.222C270.868 307.222 271.803 306.988 272.537 306.704L272.237 305.703C271.669 305.937 271.052 306.087 270.284 306.087C268.715 306.087 268.231 305.269 268.231 303.734V299.612H272.22V298.494H268.231V295.156L266.913 295.991V298.494H264.577V299.612H266.863V303.717C266.863 305.803 267.631 307.222 269.984 307.222Z" fill="white" fill-opacity="0.7"/>
<path d="M283.364 292.085L283.364 309.925" stroke="#BFBFBF" stroke-width="1.15557"/>
<path d="M293.132 307.706H294.367L301.51 295.156H300.275L293.132 307.706ZM307.661 296.591C308.312 296.591 308.829 296.124 308.829 295.44C308.829 294.739 308.312 294.255 307.661 294.255C307.01 294.255 306.493 294.739 306.493 295.44C306.493 296.124 307.01 296.591 307.661 296.591ZM303.99 307.005H311.666V305.87H308.512V298.494H303.99V299.612H307.144V305.87H303.99V307.005ZM313.329 307.005H314.647V300.814C315.064 299.929 315.431 299.478 315.999 299.478C316.6 299.478 316.917 299.996 316.917 301.03V307.005H318.018V300.814C318.435 299.929 318.819 299.478 319.403 299.478C320.004 299.478 320.288 299.996 320.288 301.03V307.005H321.606V300.914C321.606 299.211 320.955 298.294 319.837 298.294C318.936 298.294 318.402 298.861 317.918 299.762C317.718 298.778 317.2 298.294 316.383 298.294C315.465 298.294 314.964 298.828 314.564 299.629H314.513L314.397 298.494H313.329V307.005ZM327.006 310.793C329.41 310.793 330.795 309.475 330.795 307.005V298.494H329.693L329.576 299.445H329.526C328.809 298.728 327.991 298.294 327.04 298.294C325.071 298.294 323.335 299.962 323.335 302.633C323.335 305.319 324.754 306.921 326.84 306.921C327.841 306.921 328.842 306.354 329.476 305.653L329.46 307.005C329.443 308.991 328.558 309.692 327.006 309.692C326.189 309.692 325.254 309.458 324.42 308.39L323.752 309.224C324.804 310.476 325.955 310.793 327.006 310.793ZM327.14 305.787C325.655 305.787 324.737 304.552 324.737 302.616C324.737 300.763 325.905 299.445 327.273 299.445C327.991 299.445 328.692 299.729 329.426 300.463V304.485C328.692 305.336 327.924 305.787 327.14 305.787ZM333.158 307.706H334.393L341.535 295.156H340.3L333.158 307.706ZM347.52 307.222C349.84 307.222 351.125 306.07 351.125 304.685C351.125 303.4 350.073 302.733 347.887 302.149C346.419 301.765 345.417 301.331 345.417 300.63C345.417 299.946 345.901 299.362 347.42 299.362C348.421 299.362 349.289 299.729 350.007 300.263L350.674 299.362C349.873 298.794 348.638 298.294 347.42 298.294C345.184 298.294 344.015 299.345 344.015 300.697C344.015 301.882 345.434 302.666 347.103 303.1C349.089 303.617 349.74 304.101 349.74 304.769C349.74 305.536 349.022 306.137 347.57 306.137C346.118 306.137 345.117 305.687 344.216 304.986L343.548 305.887C344.533 306.604 345.935 307.222 347.52 307.222ZM353.905 307.005H355.274V301.064C356.225 299.996 356.876 299.478 357.844 299.478C359.179 299.478 359.713 300.263 359.713 301.898V307.005H361.081V301.715C361.081 299.478 360.197 298.294 358.277 298.294C357.009 298.294 356.075 299.011 355.207 299.979L355.274 297.943V294.873H353.905V307.005ZM366.465 307.222C367.616 307.222 368.768 306.571 369.669 305.837H369.719L369.836 307.005H370.954V301.765C370.954 299.679 369.886 298.294 367.666 298.294C366.248 298.294 365.046 298.961 364.395 299.512L364.929 300.463C365.514 299.962 366.381 299.428 367.433 299.428C369.001 299.428 369.552 300.446 369.586 301.615C365.397 301.982 363.711 302.9 363.711 304.819C363.711 306.337 364.946 307.222 366.465 307.222ZM366.832 306.12C365.897 306.12 365.046 305.703 365.046 304.719C365.046 303.567 366.114 302.833 369.586 302.532V304.819C368.668 305.653 367.75 306.12 366.832 306.12ZM374.802 307.005H376.171V301.982C377.139 300.196 378.29 299.529 379.509 299.529C380.143 299.529 380.443 299.612 381.01 299.829L381.328 298.644C380.827 298.377 380.326 298.294 379.725 298.294C378.224 298.294 376.955 299.161 376.104 300.53H376.054L375.937 298.494H374.802V307.005ZM387.88 307.222C389.181 307.222 390.199 306.755 391 306.221L390.516 305.303C389.765 305.803 388.998 306.104 388.046 306.104C386.277 306.104 385.009 304.919 384.942 303.083H391.284C391.317 302.866 391.334 302.566 391.334 302.282C391.334 299.879 389.966 298.294 387.646 298.294C385.543 298.294 383.524 299.996 383.524 302.766C383.524 305.553 385.476 307.222 387.88 307.222ZM384.926 302.082C385.143 300.38 386.344 299.378 387.663 299.378C389.165 299.378 390.066 300.346 390.066 302.082H384.926ZM397.385 307.205C398.136 307.205 398.737 306.638 398.737 305.803C398.737 304.952 398.136 304.385 397.385 304.385C396.634 304.385 396.034 304.952 396.034 305.803C396.034 306.638 396.634 307.205 397.385 307.205ZM407.559 307.222C409.878 307.222 411.163 306.07 411.163 304.685C411.163 303.4 410.112 302.733 407.926 302.149C406.457 301.765 405.456 301.331 405.456 300.63C405.456 299.946 405.94 299.362 407.458 299.362C408.46 299.362 409.328 299.729 410.045 300.263L410.713 299.362C409.912 298.794 408.677 298.294 407.458 298.294C405.222 298.294 404.054 299.345 404.054 300.697C404.054 301.882 405.473 302.666 407.141 303.1C409.127 303.617 409.778 304.101 409.778 304.769C409.778 305.536 409.061 306.137 407.609 306.137C406.157 306.137 405.156 305.687 404.254 304.986L403.587 305.887C404.571 306.604 405.973 307.222 407.559 307.222ZM416.664 307.005H418.199L421.554 298.494H420.235L418.366 303.384C418.032 304.235 417.765 305.086 417.482 305.87H417.415C417.131 305.086 416.831 304.235 416.497 303.384L414.628 298.494H413.243L416.664 307.005ZM427.071 310.793C429.474 310.793 430.859 309.475 430.859 307.005V298.494H429.758L429.641 299.445H429.591C428.873 298.728 428.055 298.294 427.104 298.294C425.135 298.294 423.399 299.962 423.399 302.633C423.399 305.319 424.818 306.921 426.904 306.921C427.905 306.921 428.907 306.354 429.541 305.653L429.524 307.005C429.507 308.991 428.623 309.692 427.071 309.692C426.253 309.692 425.319 309.458 424.484 308.39L423.817 309.224C424.868 310.476 426.019 310.793 427.071 310.793ZM427.204 305.787C425.719 305.787 424.801 304.552 424.801 302.616C424.801 300.763 425.969 299.445 427.338 299.445C428.055 299.445 428.756 299.729 429.491 300.463V304.485C428.756 305.336 427.989 305.787 427.204 305.787Z" fill="white" fill-opacity="0.7"/>
<rect x="47.596" y="282.596" width="699.808" height="35.808" rx="7.40399" stroke="url(#paint1_linear_19_7555)" stroke-width="1.19202"/>
</g>
</g>
<defs>
<filter id="filter0_b_19_7555" x="37.4639" y="272.464" width="720.072" height="56.0723" filterUnits="userSpaceOnUse" color-interpolation-filters="sRGB">
<feFlood flood-opacity="0" result="BackgroundImageFix"/>
<feGaussianBlur in="BackgroundImageFix" stdDeviation="4.76807"/>
<feComposite in2="SourceAlpha" operator="in" result="effect1_backgroundBlur_19_7555"/>
<feBlend mode="normal" in="SourceGraphic" in2="effect1_backgroundBlur_19_7555" result="shape"/>
</filter>
<filter id="filter1_b_19_7555" x="46.0313" y="244.496" width="132.782" height="113.017" filterUnits="userSpaceOnUse" color-interpolation-filters="sRGB">
<feFlood flood-opacity="0" result="BackgroundImageFix"/>
<feGaussianBlur in="BackgroundImageFix" stdDeviation="21.6269"/>
<feComposite in2="SourceAlpha" operator="in" result="effect1_backgroundBlur_19_7555"/>
<feBlend mode="normal" in="SourceGraphic" in2="effect1_backgroundBlur_19_7555" result="shape"/>
</filter>
<linearGradient id="paint0_linear_19_7555" x1="394.488" y1="207.264" x2="423.075" y2="357.229" gradientUnits="userSpaceOnUse">
<stop stop-color="#BB93C5" stop-opacity="0"/>
<stop offset="0.197872" stop-color="#BB93C5" stop-opacity="0.19"/>
<stop offset="1" stop-color="#302642"/>
</linearGradient>
<linearGradient id="paint1_linear_19_7555" x1="627.95" y1="319" x2="639.702" y2="274.344" gradientUnits="userSpaceOnUse">
<stop stop-color="#D478FF" stop-opacity="0.05"/>
<stop offset="1" stop-color="#D782FF" stop-opacity="0.74"/>
</linearGradient>
<clipPath id="clip0_19_7555">
<rect width="533" height="400" fill="white"/>
</clipPath>
</defs>
</svg>
